X:2143
T:Gan Ainm (for now - somebody give us the name)
O:england
R:Double Jig
C:Unknown (by me - somebody give us the composer)
S:Session at Bodolino's, Milwaukee Irish Fest, Aug. 15, 1995
M:6/8
L:1/8
K:G
EFG F2E|e2f g2a -|ba-g -fe-d|E2G FDB,|
EFG F2E|e2f g2a -|ba-g -fe-d -|e6:|
|:gab gab|gab bag|faa faa|fga agf|
gab bag|fga agf|efg fed|e6:|


